; generated by PrusaSlicer 2.0.0 on 2019-12-22 at 16:17:14

; 

; external perimeters extrusion width = 0.45mm
; perimeters extrusion width = 0.45mm
; infill extrusion width = 0.45mm
; solid infill extrusion width = 0.45mm
; top infill extrusion width = 0.40mm
; first layer extrusion width = 0.42mm

M201 X4500 Y4500 Z100 E100 ; sets maximum accelerations, mm/sec^2
M203 X500 Y500 Z5 E30 ; sets maximum feedrates, mm/sec
M204 P2000 R1500 T2000 ; sets acceleration (P, T) and retract acceleration (R), mm/sec^2
M205 X10.00 Y10.00 Z0.40 E2.50 ; sets the jerk limits, mm/sec
M205 S0 T0 ; sets the minimum extruding and travel feed rate, mm/sec
M107
M115 U3.1.0 ; tell printer latest fw version
M83  ; extruder relative mode
M204 S2000 T1500 ; MK2 firmware only supports the old M204 format
M104 S215 ; set extruder temp
M140 S60 ; set bed temp
M190 S60 ; wait for bed temp
M109 S215 ; wait for extruder temp
G28 W ; home all without mesh bed level
G80 ; mesh bed leveling
G1 Y-3.0 F1000.0 ; go outside print area
G92 E0.0
G1 X60.0 E9.0  F1000.0 ; intro line
G1 X100.0 E12.5  F1000.0 ; intro line
G92 E0.0
M900 K30 ; Filament gcode
G21 ; set units to millimeters
G90 ; use absolute coordinates
M83 ; use relative distances for extrusion
;BEFORE_LAYER_CHANGE
G92 E0.0
;0.2


G1 E-0.80000 F2100.00000
G1 Z0.600 F10800.000
;AFTER_LAYER_CHANGE
;0.2
G1 X69.250 Y70.812
G1 Z0.200
G1 E0.80000 F2100.00000
M204 S1000
G1 F1200
G1 X70.364 Y70.583 E0.03565
G1 X94.954 Y69.047 E0.77252
G1 X97.263 Y69.185 E0.07252
G1 X99.682 Y69.656 E0.07727
G1 X101.963 Y70.428 E0.07550
G1 X104.070 Y71.469 E0.07369
G1 X106.091 Y72.826 E0.07632
G1 X107.894 Y74.427 E0.07560
G1 X109.486 Y76.280 E0.07662
G1 X110.717 Y78.166 E0.07059
G1 X111.064 Y79.071 E0.03040
G1 X111.177 Y80.091 E0.03218
G1 X111.037 Y81.031 E0.02979
G1 X110.637 Y81.977 E0.03220
G1 X109.516 Y83.680 E0.06391
G1 X108.175 Y85.281 E0.06549
G1 X106.613 Y86.754 E0.06733
G1 X105.027 Y87.937 E0.06203
G1 X102.729 Y89.233 E0.08273
G1 X101.447 Y89.777 E0.04364
G1 X100.188 Y90.202 E0.04167
G1 X98.934 Y90.527 E0.04061
G1 X97.450 Y90.791 E0.04727
G1 X94.922 Y90.953 E0.07942
G1 X70.142 Y89.396 E0.77850
G1 X69.252 Y89.189 E0.02865
G1 X68.423 Y88.800 E0.02871
G1 X67.704 Y88.249 E0.02840
G1 X67.111 Y87.543 E0.02890
G1 X66.599 Y86.490 E0.03673
G1 X66.380 Y85.333 E0.03691
G1 X66.382 Y74.636 E0.33542
G1 X66.574 Y73.589 E0.03335
G1 X66.947 Y72.724 E0.02955
G1 X67.506 Y71.953 E0.02987
G1 X68.242 Y71.317 E0.03049
G1 X69.197 Y70.839 E0.03348
G1 X69.358 Y71.181 F10800.000
G1 F1200
G1 X69.417 Y71.153 E0.00204
G1 X70.405 Y70.957 E0.03158
G1 X94.957 Y69.424 E0.77132
G1 X97.217 Y69.559 E0.07098
G1 X99.586 Y70.020 E0.07568
G1 X101.820 Y70.777 E0.07395
G1 X103.882 Y71.796 E0.07213
G1 X105.861 Y73.125 E0.07472
G1 X107.627 Y74.693 E0.07406
G1 X109.186 Y76.508 E0.07500
G1 X110.391 Y78.357 E0.06921
G1 X110.725 Y79.279 E0.03077
G1 X110.793 Y80.246 E0.03039
G1 X110.587 Y81.201 E0.03063
G1 X110.141 Y82.074 E0.03074
G1 X109.055 Y83.664 E0.06037
G1 X107.678 Y85.254 E0.06595
G1 X106.248 Y86.566 E0.06084
G1 X104.689 Y87.708 E0.06062
G1 X102.419 Y88.961 E0.08129
G1 X99.927 Y89.886 E0.08335
G1 X97.386 Y90.420 E0.08141
G1 X94.928 Y90.576 E0.07721
G1 X70.194 Y89.022 E0.77705
G1 X69.376 Y88.833 E0.02632
G1 X68.617 Y88.477 E0.02630
G1 X67.960 Y87.972 E0.02597
G1 X67.412 Y87.316 E0.02680
G1 X66.954 Y86.363 E0.03314
G1 X66.756 Y85.302 E0.03385
G1 X66.759 Y74.651 E0.33394
G1 X66.940 Y73.682 E0.03092
G1 X67.295 Y72.874 E0.02767
G1 X67.820 Y72.170 E0.02754
G1 X68.572 Y71.552 E0.03051
G1 X69.304 Y71.207 E0.02538
G1 F8640
G1 X69.417 Y71.153 E-0.02888
G1 X70.405 Y70.957 E-0.23256
G1 X72.560 Y70.823 E-0.49856
G1 E-0.04000 F2100.00000
G1 Z0.800 F10800.000
G1 X97.560 Y78.600
G1 Z0.200
G1 E0.80000 F2100.00000
G1 F1200
G1 X97.639 Y78.465 E0.00488
G1 X97.791 Y78.338 E0.00623
G1 X98.051 Y78.271 E0.00842
G1 X98.286 Y78.291 E0.00738
G1 X98.484 Y78.358 E0.00656
G1 X98.676 Y78.483 E0.00719
G1 X98.811 Y78.649 E0.00671
G1 X98.904 Y78.858 E0.00718
G1 X99.090 Y79.505 E0.02110
G1 X99.574 Y80.708 E0.04066
G1 X99.755 Y80.110 E0.01959
G1 X100.129 Y79.036 E0.03567
G1 X100.265 Y78.746 E0.01002
G1 X100.417 Y78.524 E0.00845
G1 X100.577 Y78.371 E0.00695
G1 X100.756 Y78.285 E0.00621
G1 X100.946 Y78.274 E0.00599
G1 X101.135 Y78.342 E0.00629
G1 X101.307 Y78.476 E0.00683
G1 X101.442 Y78.656 E0.00706
G1 X101.526 Y78.872 E0.00729
G1 X101.542 Y79.076 E0.00639
G1 X101.474 Y79.359 E0.00915
G1 X101.188 Y80.012 E0.02236
G1 X100.974 Y80.660 E0.02140
G1 X100.022 Y83.319 E0.08855
G1 X99.641 Y84.301 E0.03303
G1 X99.371 Y84.897 E0.02051
G1 X99.254 Y85.094 E0.00716
G1 X99.079 Y85.318 E0.00893
G1 X98.799 Y85.544 E0.01128
G1 X98.530 Y85.677 E0.00943
G1 X98.309 Y85.753 E0.00731
G1 X98.015 Y85.820 E0.00947
G1 X97.770 Y85.831 E0.00767
G1 X97.560 Y85.788 E0.00674
G1 X97.412 Y85.715 E0.00516
G1 X97.224 Y85.519 E0.00852
G1 X97.122 Y85.305 E0.00745
G1 X97.083 Y85.146 E0.00511
G1 X97.074 Y84.997 E0.00469
G1 X97.114 Y84.800 E0.00629
G1 X97.223 Y84.642 E0.00604
G1 X97.389 Y84.534 E0.00621
G1 X97.867 Y84.396 E0.01557
G1 X98.026 Y84.325 E0.00547
G1 X98.235 Y84.147 E0.00861
G1 X98.373 Y83.918 E0.00840
G1 X98.591 Y83.346 E0.01919
G1 X98.778 Y82.958 E0.01350
G1 X98.839 Y82.727 E0.00748
G1 X98.795 Y82.505 E0.00710
G1 X98.522 Y81.881 E0.02137
G1 X97.928 Y80.276 E0.05363
G1 X97.628 Y79.547 E0.02473
G1 X97.537 Y79.229 E0.01038
G1 X97.505 Y78.869 E0.01132
G1 X97.548 Y78.658 E0.00675
G1 X97.462 Y78.479 F10800.000
G1 X96.829 Y78.827
G1 F1200
G1 X96.854 Y78.932 E0.00337
G1 X96.778 Y79.233 E0.00973
G1 X96.091 Y80.396 E0.04235
G1 X96.018 Y80.568 E0.00588
G1 X95.994 Y80.698 E0.00414
G1 X96.004 Y80.817 E0.00375
G1 X96.051 Y80.942 E0.00419
G1 X96.734 Y82.079 E0.04157
G1 X96.869 Y82.379 E0.01034
G1 X96.906 Y82.630 E0.00796
G1 X96.877 Y82.864 E0.00737
G1 X96.777 Y83.065 E0.00705
G1 X96.571 Y83.231 E0.00829
G1 X96.354 Y83.301 E0.00715
G1 X96.126 Y83.307 E0.00717
G1 X95.920 Y83.244 E0.00674
G1 X95.753 Y83.119 E0.00655
G1 X95.565 Y82.859 E0.01006
G1 X95.105 Y82.029 E0.02975
G1 X94.936 Y82.401 E0.01280
G1 X94.744 Y82.728 E0.01189
G1 X94.538 Y83.019 E0.01118
G1 X94.374 Y83.182 E0.00726
G1 X94.130 Y83.295 E0.00843
G1 X93.856 Y83.268 E0.00861
G1 X93.604 Y83.129 E0.00901
G1 X93.458 Y82.957 E0.00709
G1 X93.394 Y82.772 E0.00615
G1 X93.389 Y82.625 E0.00462
G1 X93.430 Y82.417 E0.00663
G1 X93.496 Y82.252 E0.00558
G1 X94.023 Y81.327 E0.03338
G1 X94.350 Y80.866 E0.01772
G1 X94.383 Y80.773 E0.00309
G1 X94.351 Y80.667 E0.00346
G1 X94.118 Y80.315 E0.01323
G1 X93.559 Y79.309 E0.03609
G1 X93.475 Y79.061 E0.00819
G1 X93.460 Y78.782 E0.00876
G1 X93.565 Y78.540 E0.00828
G1 X93.783 Y78.358 E0.00892
G1 X94.060 Y78.272 E0.00908
G1 X94.216 Y78.273 E0.00492
G1 X94.401 Y78.331 E0.00606
G1 X94.529 Y78.411 E0.00474
G1 X94.694 Y78.571 E0.00720
G1 X94.920 Y78.899 E0.01250
G1 X95.191 Y79.426 E0.01857
G1 X95.367 Y79.027 E0.01367
G1 X95.516 Y78.757 E0.00965
G1 X95.700 Y78.535 E0.00904
G1 X95.887 Y78.380 E0.00760
G1 X96.136 Y78.272 E0.00853
G1 X96.399 Y78.294 E0.00825
G1 X96.634 Y78.444 E0.00876
G1 X96.789 Y78.658 E0.00827
G1 X96.815 Y78.769 E0.00358
G1 X96.934 Y78.850 F10800.000
G1 F8640
G1 X96.854 Y78.932 E-0.03865
G1 X96.778 Y79.233 E-0.07168
G1 X96.091 Y80.396 E-0.31187
G1 X96.018 Y80.568 E-0.04328
G1 X95.994 Y80.698 E-0.03049
G1 X96.004 Y80.817 E-0.02758
G1 X96.051 Y80.942 E-0.03084
G1 X96.510 Y81.706 E-0.20562
G1 E-0.04000 F2100.00000
G1 Z0.800 F10800.000
G1 X92.722 Y81.618
G1 Z0.200
G1 E0.80000 F2100.00000
G1 F1200
G1 X92.838 Y81.798 E0.00672
G1 X92.923 Y82.000 E0.00685
G1 X92.978 Y82.306 E0.00976
G1 X92.968 Y82.525 E0.00688
G1 X92.920 Y82.738 E0.00684
G1 X92.787 Y83.019 E0.00974
G1 X92.653 Y83.192 E0.00688
G1 X92.489 Y83.338 E0.00687
G1 X92.217 Y83.490 E0.00976
G1 X92.007 Y83.552 E0.00688
G1 X91.795 Y83.575 E0.00669
G1 X91.581 Y83.560 E0.00671
G1 X91.374 Y83.509 E0.00668
G1 X91.174 Y83.420 E0.00689
G1 X90.924 Y83.233 E0.00977
G1 X90.782 Y83.067 E0.00685
G1 X90.672 Y82.879 E0.00684
G1 X90.576 Y82.583 E0.00977
G1 X90.558 Y82.364 E0.00688
G1 X90.576 Y82.146 E0.00685
G1 X90.672 Y81.850 E0.00977
G1 X90.782 Y81.662 E0.00684
G1 X90.921 Y81.499 E0.00671
G1 X91.087 Y81.364 E0.00669
G1 X91.273 Y81.258 E0.00673
G1 X91.481 Y81.188 E0.00686
G1 X91.758 Y81.155 E0.00875
G1 X92.005 Y81.177 E0.00779
G1 X92.213 Y81.238 E0.00681
G1 X92.404 Y81.335 E0.00672
G1 X92.575 Y81.462 E0.00666
G1 X92.681 Y81.574 E0.00485
G1 X92.934 Y81.589 F10800.000
G1 F8640
G1 X92.838 Y81.798 E-0.06318
G1 X92.923 Y82.000 E-0.05044
G1 X92.978 Y82.306 E-0.07186
G1 X92.968 Y82.525 E-0.05069
G1 X92.920 Y82.738 E-0.05037
G1 X92.787 Y83.019 E-0.07172
G1 X92.653 Y83.192 E-0.05069
G1 X92.489 Y83.338 E-0.05061
G1 X92.217 Y83.490 E-0.07189
G1 X92.007 Y83.552 E-0.05068
G1 X91.795 Y83.575 E-0.04924
G1 X91.581 Y83.560 E-0.04945
G1 X91.374 Y83.509 E-0.04918
G1 X91.256 Y83.457 E-0.03000
G1 E-0.04000 F2100.00000
G1 Z0.800 F10800.000
G1 X86.246 Y83.060
G1 Z0.200
G1 E0.80000 F2100.00000
G1 F1200
G1 X86.101 Y82.942 E0.00584
G1 X85.993 Y82.765 E0.00651
G1 X85.926 Y82.539 E0.00737
G1 X85.902 Y82.267 E0.00857
G1 X85.920 Y81.665 E0.01889
G1 X85.924 Y78.050 E0.11334
G1 X85.882 Y77.425 E0.01966
G1 X85.957 Y77.151 E0.00889
G1 X86.150 Y76.964 E0.00843
G1 X86.431 Y76.855 E0.00945
G1 X86.728 Y76.824 E0.00936
G1 X88.337 Y76.860 E0.05045
G1 X88.789 Y76.919 E0.01430
G1 X89.259 Y77.042 E0.01523
G1 X89.636 Y77.226 E0.01318
G1 X89.978 Y77.499 E0.01371
G1 X90.248 Y77.815 E0.01302
G1 X90.497 Y78.239 E0.01542
G1 X90.641 Y78.604 E0.01231
G1 X90.716 Y78.873 E0.00876
G1 X90.811 Y79.473 E0.01905
G1 X90.831 Y79.980 E0.01589
G1 X90.817 Y80.334 E0.01111
G1 X90.725 Y80.969 E0.02010
G1 X90.556 Y81.511 E0.01781
G1 X90.441 Y81.759 E0.00858
G1 X90.242 Y82.080 E0.01183
G1 X90.010 Y82.355 E0.01131
G1 X89.827 Y82.523 E0.00777
G1 X89.637 Y82.667 E0.00748
G1 X89.335 Y82.837 E0.01084
G1 X88.909 Y82.981 E0.01410
G1 X88.372 Y83.067 E0.01707
G1 X87.850 Y83.094 E0.01638
G1 X87.032 Y83.086 E0.02564
G1 X86.588 Y83.128 E0.01400
G1 X86.382 Y83.111 E0.00647
G1 X86.302 Y83.081 E0.00269
G1 X86.085 Y83.153 F10800.000
G1 F8640
G1 X86.101 Y82.942 E-0.05630
G1 X85.993 Y82.765 E-0.04796
G1 X85.926 Y82.539 E-0.05431
G1 X85.902 Y82.267 E-0.06309
G1 X85.920 Y81.665 E-0.13914
G1 X85.922 Y79.936 E-0.39920
G1 E-0.04000 F2100.00000
G1 Z0.800 F10800.000
G1 X82.685 Y78.474
G1 Z0.200
G1 E0.80000 F2100.00000
G1 F1200
G1 X82.561 Y78.530 E0.00428
G1 X82.318 Y78.571 E0.00772
G1 X82.591 Y78.401 E0.01007
G1 X82.734 Y78.368 E0.00463
G1 X82.725 Y78.430 E0.00194
G1 X81.807 Y78.416 F10800.000
G1 F1200
G1 X81.617 Y78.434 E0.00597
G1 X81.423 Y78.371 E0.00639
G1 X81.225 Y78.216 E0.00789
G1 X81.084 Y78.019 E0.00758
G1 X81.002 Y77.796 E0.00747
G1 X80.994 Y77.576 E0.00691
G1 X81.091 Y77.329 E0.00832
G1 X81.243 Y77.149 E0.00739
G1 X81.453 Y76.991 E0.00824
G1 X81.730 Y76.847 E0.00979
G1 X82.039 Y76.743 E0.01022
G1 X82.384 Y76.681 E0.01098
G1 X82.988 Y76.666 E0.01893
G1 X83.269 Y76.696 E0.00887
G1 X83.595 Y76.767 E0.01046
G1 X83.800 Y76.840 E0.00682
G1 X84.061 Y76.980 E0.00931
G1 X84.221 Y77.103 E0.00631
G1 X84.416 Y77.314 E0.00899
G1 X84.563 Y77.555 E0.00888
G1 X84.661 Y77.889 E0.01089
G1 X84.679 Y78.185 E0.00932
G1 X84.642 Y78.677 E0.01544
G1 X84.554 Y79.002 E0.01059
G1 X84.429 Y79.205 E0.00748
G1 X84.254 Y79.365 E0.00743
G1 X83.994 Y79.509 E0.00929
G1 X84.230 Y79.608 E0.00802
G1 X84.366 Y79.698 E0.00510
G1 X84.521 Y79.860 E0.00704
G1 X84.642 Y80.066 E0.00749
G1 X84.753 Y80.377 E0.01034
G1 X84.872 Y80.809 E0.01405
G1 X84.919 Y81.127 E0.01010
G1 X84.898 Y81.533 E0.01275
G1 X84.781 Y81.954 E0.01371
G1 X84.628 Y82.271 E0.01102
G1 X84.363 Y82.630 E0.01399
G1 X84.035 Y82.911 E0.01353
G1 X83.651 Y83.114 E0.01364
G1 X83.234 Y83.228 E0.01357
G1 X82.859 Y83.265 E0.01180
G1 X82.449 Y83.259 E0.01287
G1 X82.202 Y83.230 E0.00778
G1 X81.884 Y83.159 E0.01023
G1 X81.596 Y83.050 E0.00965
G1 X81.373 Y82.914 E0.00818
G1 X81.186 Y82.732 E0.00818
G1 X81.045 Y82.472 E0.00930
G1 X80.991 Y82.223 E0.00797
G1 X81.024 Y81.918 E0.00964
G1 X81.171 Y81.674 E0.00893
G1 X81.406 Y81.526 E0.00870
G1 X81.707 Y81.473 E0.00960
G1 X81.954 Y81.501 E0.00780
G1 X82.156 Y81.575 E0.00672
G1 X82.586 Y81.884 E0.01661
G1 X82.690 Y81.938 E0.00370
G1 X82.828 Y81.957 E0.00437
G1 X82.948 Y81.937 E0.00381
G1 X83.142 Y81.843 E0.00676
G1 X83.254 Y81.745 E0.00469
G1 X83.340 Y81.621 E0.00471
G1 X83.394 Y81.480 E0.00475
G1 X83.415 Y81.268 E0.00667
G1 X83.370 Y81.060 E0.00667
G1 X83.250 Y80.835 E0.00802
G1 X83.113 Y80.677 E0.00654
G1 X82.947 Y80.546 E0.00665
G1 X82.759 Y80.451 E0.00659
G1 X82.625 Y80.407 E0.00443
G1 X82.131 Y80.316 E0.01576
G1 X81.929 Y80.239 E0.00675
G1 X81.749 Y80.068 E0.00779
G1 X81.679 Y79.869 E0.00664
G1 X81.675 Y79.646 E0.00698
G1 X81.732 Y79.417 E0.00740
G1 X81.808 Y79.264 E0.00536
G1 X81.956 Y79.093 E0.00707
G1 X82.198 Y78.974 E0.00848
G1 X82.653 Y78.897 E0.01447
G1 X82.803 Y78.846 E0.00496
G1 X82.927 Y78.767 E0.00461
G1 X83.028 Y78.660 E0.00462
G1 X83.094 Y78.544 E0.00419
G1 X83.119 Y78.436 E0.00347
G1 X83.104 Y78.273 E0.00514
G1 X83.059 Y78.165 E0.00367
G1 X82.988 Y78.077 E0.00353
G1 X82.908 Y78.024 E0.00301
G1 X82.808 Y77.993 E0.00330
G1 X82.679 Y77.990 E0.00403
G1 X82.458 Y78.046 E0.00714
G1 X81.951 Y78.360 E0.01870
G1 X81.862 Y78.394 E0.00298
G1 X81.752 Y78.599 F10800.000
G1 F8640
G1 X81.617 Y78.434 E-0.05743
G1 X81.423 Y78.371 E-0.04706
G1 X81.225 Y78.216 E-0.05809
G1 X81.084 Y78.019 E-0.05579
G1 X81.002 Y77.796 E-0.05498
G1 X80.994 Y77.576 E-0.05086
G1 X81.091 Y77.329 E-0.06130
G1 X81.243 Y77.149 E-0.05439
G1 X81.453 Y76.991 E-0.06068
G1 X81.730 Y76.847 E-0.07209
G1 X82.039 Y76.743 E-0.07530
G1 X82.384 Y76.681 E-0.08084
G1 X82.519 Y76.678 E-0.03120
G1 E-0.04000 F2100.00000
G1 Z0.800 F10800.000
G1 X80.114 Y76.936
G1 Z0.200
G1 E0.80000 F2100.00000
G1 F1200
G1 X80.224 Y77.034 E0.00463
G1 X80.322 Y77.211 E0.00634
G1 X80.369 Y77.503 E0.00928
G1 X80.327 Y77.770 E0.00844
G1 X80.225 Y77.961 E0.00681
G1 X80.024 Y78.114 E0.00792
G1 X79.812 Y78.181 E0.00697
G1 X79.485 Y78.215 E0.01032
G1 X78.557 Y78.201 E0.02909
G1 X78.461 Y78.243 E0.00328
G1 X78.436 Y78.451 E0.00659
G1 X78.453 Y82.364 E0.12270
G1 X78.408 Y82.613 E0.00793
G1 X78.320 Y82.816 E0.00694
G1 X78.173 Y82.982 E0.00693
G1 X77.986 Y83.084 E0.00669
G1 X77.694 Y83.123 E0.00923
G1 X77.383 Y83.053 E0.01000
G1 X77.173 Y82.900 E0.00816
G1 X77.094 Y82.767 E0.00485
G1 X77.050 Y82.576 E0.00615
G1 X77.089 Y81.928 E0.02033
G1 X77.072 Y79.145 E0.08727
G1 X77.108 Y78.581 E0.01772
G1 X77.084 Y78.409 E0.00546
G1 X77.046 Y78.337 E0.00254
G1 X76.979 Y78.270 E0.00298
G1 X76.799 Y78.193 E0.00612
G1 X76.543 Y78.180 E0.00805
G1 X75.819 Y78.255 E0.02283
G1 X75.609 Y78.217 E0.00670
G1 X75.434 Y78.119 E0.00627
G1 X75.299 Y77.958 E0.00659
G1 X75.214 Y77.754 E0.00695
G1 X75.183 Y77.521 E0.00737
G1 X75.218 Y77.291 E0.00730
G1 X75.315 Y77.084 E0.00713
G1 X75.464 Y76.927 E0.00681
G1 X75.629 Y76.839 E0.00586
G1 X75.857 Y76.803 E0.00725
G1 X76.484 Y76.846 E0.01971
G1 X79.794 Y76.835 E0.10376
G1 X79.946 Y76.860 E0.00483
G1 X80.060 Y76.911 E0.00391
G1 X80.247 Y76.871 F10800.000
G1 F8640
G1 X80.224 Y77.034 E-0.04747
G1 X80.322 Y77.211 E-0.04669
G1 X80.369 Y77.503 E-0.06831
G1 X80.327 Y77.770 E-0.06218
G1 X80.225 Y77.961 E-0.05016
G1 X80.024 Y78.114 E-0.05833
G1 X79.812 Y78.181 E-0.05133
G1 X79.485 Y78.215 E-0.07600
G1 X78.557 Y78.201 E-0.21424
G1 X78.461 Y78.243 E-0.02416
G1 X78.436 Y78.451 E-0.04850
G1 X78.436 Y78.506 E-0.01264
G1 E-0.04000 F2100.00000
G1 Z0.800 F10800.000
G1 X74.554 Y77.927
G1 Z0.200
G1 E0.80000 F2100.00000
G1 F1200
G1 X74.528 Y78.078 E0.00479
G1 X74.442 Y78.275 E0.00674
G1 X74.337 Y78.411 E0.00538
G1 X74.162 Y78.545 E0.00691
G1 X73.953 Y78.609 E0.00684
G1 X73.741 Y78.597 E0.00668
G1 X73.511 Y78.525 E0.00754
G1 X72.821 Y78.135 E0.02486
G1 X72.671 Y78.090 E0.00491
G1 X72.546 Y78.079 E0.00394
G1 X72.261 Y78.111 E0.00898
G1 X72.051 Y78.182 E0.00696
G1 X71.860 Y78.288 E0.00686
G1 X71.704 Y78.421 E0.00641
G1 X71.533 Y78.651 E0.00899
G1 X71.430 Y78.874 E0.00772
G1 X71.349 Y79.149 E0.00899
G1 X71.296 Y79.484 E0.01064
G1 X71.272 Y79.922 E0.01373
G1 X71.291 Y80.398 E0.01495
G1 X71.340 Y80.745 E0.01099
G1 X71.423 Y81.042 E0.00969
G1 X71.534 Y81.283 E0.00829
